X: 3
T: Christy Barry's
R: jig
M: 6/8
L: 1/8
K: Gmaj
|:G2A BAG|A2B d2e|ged BGG|~A3 AGE|
DGG BAG|A2B d2e|ged BGG|1 AGF GDB:|2 AGF GBd||
~g3 gfg|abg d2e|ged BGG|~A3 AGE|
~g3 gfg|a2g d2e|ged BGG|AGF GBd|
~g3 gfg|abg d2e|ged BGG|~A3 AGE|
DGG BAG|A2B d2e|ged BGG|AGF GDB||


Tune 843	Setting 21445

